X:288
T: Canjia le gaojishe
N: C1785
O: China, Jiangsu Pixian
S: III, 435]
R: Xiaodiao, Wugeng diao]
M: 2/4
L: 1/16
K: G
B2BdB2A2 | BEG4A2 | e2e2e2eB | d8
e3gB2d2 | e2g2f2e2 | e2eBd2e2 | d3ec2B2
B2E2G2A2 | B2B2e4 | B2B2A2BA | G8

